X:1
T:Copycat (Vocaloid)
T:Copycat (Vocaloid)
T:Alchemist Music and Q Music 2 
T:Arranged by Vincant Violin
C:Alchemist Music
C:
Z:Arranged by Vincant Violin
%%score { ( 1 4 ) | ( 2 3 ) }
L:1/8
Q:1/4=140
M:4/4
K:Eb
V:1 treble nm="Фортепиано" snm="Ф-но"
V:4 treble 
V:2 bass 
V:3 bass 
V:1
"^Intro"!mp! z8 | z8 | z8 | z8 |!mf! z8 | z8 | z8 | z8 |"^Verse 1" z2 c2 c2 g2 | z2 B2 B2 e2 | %10
 z2 A2 A2 c2 | c2 =B2 c2 d2 | z2 c2 c2 g2 | z2 B3/2B3/2Bed- | d z e2 e c2 c | c2 =B2 c2 d2 | %16
 z2 g2 g g2 g | e2 e2 e2 z2 | f2 f2 f g2 g | e2 e2 d2 e2 | c2 g2 g g2 g | e2 e2 e2 z2 | %22
 d2 d2 e2 d2 | c2 c2 d2 e2 |!mp! c2 z2 z2"^Pre-chorus" g2 | f3 e3 f2 | c3 z z4 | f4 g4 | e4 z2 g2 | %29
!<(! f3 e3 f2!<)! |!<(! c2 z2 c2 e2!<)! |!<(! f2 e4 z2!<)! |"^Chorus" z2!f! [cc']2 [cc']2 [ee']2 | %33
 [dd']2 [cc']2 [cc']4 | [ee']2 [cc']2 [ee']2 [gg']2 | [ff']2 [ee']3 [ee'] [ff']2 | %36
 z2 [Gg]2 [cc']2 [ee']2 | [dd']2 [ee']2 [ee']4 | [ee']2 [cc']2 [ee']2 [gg']2 | %39
 [ff']2 [ee']2 [ff']3 [cc']- | [cc'] z [ee']2 [dd']3/2[ee']3/2[dd'] | %41
 [cc'][Bb] [cc']2 [dd']3/2[ee']3/2[dd'] | [cc'][Bb] [cc']2 [cc']2 [gg']2 | [ff']2 z [dd']3 [ee']2 | %44
 [cc'] z [ee']2 [dd']3/2[ee']3/2[dd'] | [cc'][Bb] [cc']2 [dd']3/2[ee']3/2[dd'] | %46
 [cc'][Bb] [cc']2 [cc'] z [gg']2 | [ff']2 z [dd']3 [ee']2 | [cc']8 |"^Verse 2"!mp! z2 c2 c2 g2 | %50
 z2 B2 BB e2 | z2 A2 A2 cc | c2 =B2 c2 d2 | z2 c2 c2 g2 | z2 B3/2B3/2Bed | d z e2 e c2 c | %56
 c2 =B2 c2 d2 |!mf! c2 g2 g g2 g | e2 e2 e2 z2 | f2 f2 f g2 g | e2 e2 d2 e2 | c2 g2 g g2 g | %62
 e2 e2 e2 z2 | d2 d2 e2 d2 | c4 d4 |"^Pre-chorus 2"!mp! c4 z2!mp! g2 | f3 e3 f2 | c3 z z4 | f4 g4 | %69
 e4 z2 g2 |!<(! f3 e3 f2!<)! |!<(! c2 z2 c2 e2!<)! |!<(! f2 e4 z2!<)! | %73
"^Chorus" z2!f! [cc']2 [cc']2 [ee']2 | [dd']2 [cc']2 [cc']4 | [ee']2 [cc']2 [ee']2 [gg']2 | %76
 [ff']2 [ee']3 [ee'] [ff']2 | z2 [Gg]2 [cc']2 [ee']2 | [dd']2 [ee']2 [ee']4 | %79
 [ee']2 [cc']2 [ee']2 [gg']2 | [ff']2 [ee']2 [ff']3 [cc'] | c' z [ee']2 [dd']3/2[ee']3/2[dd'] | %82
 [cc'][Bb] [cc']2 [dd']3/2[ee']3/2[dd'] | [cc'][Bb] [cc']2 [cc']2 [gg']2 | [ff']2 z [dd']3 [ee']2 | %85
 [cc'] z [ee']2 [dd']3/2[ee']3/2[dd'] | [cc'][Bb] [cc']2 [dd']3/2[ee']3/2[dd'] | %87
 [cc'][Bb] [cc']2 [cc'] z [gg']2 | [ff']2 z [dd']3 [ee']2 | %89
!mp!"^Solo" C2 c/4c'/4c/4c'/4c/4c'/4c/ e/4e'/4e/4e'/4e/4e'/4e/4e'/4 c/4c'/4c/4c'/4c/4c'/4c/4c'/4 | %90
 E2 B/4b/4B/4b/4B/4b/4B/4b/4 e/4e'/4e/4e'/4e/4e'/4e/4e'/4 B/4b/4B/4b/4B/4b/4B/4b/4 | %91
 A,2 A/4a/4A/4a/4A/4a/4A/4a/4 c/4c'/4c/4c'/4c/4c'/4c/4c'/4 A/4a/4A/4a/4A/4a/4A/4a/4 | %92
 G,2 G/4g/4G/4g/4G/4g/4G/4g/4 c/4c'/4c/4c'/4c/4c'/4c/4c'/4 =B/4=b/4B/4b/4B/4b/4B/4b/4 | %93
!mp! C2 c/4c'/4c/4c'/4c/4c'/4c/ e/4e'/4e/4e'/4e/4e'/4e/4e'/4 c/4c'/4c/4c'/4c/4c'/4c/4c'/4 | %94
 E2 B/4b/4B/4b/4B/4b/4B/4b/4 e/4e'/4e/4e'/4e/4e'/4e/4e'/4 B/4b/4B/4b/4B/4b/4B/4b/4 | %95
 A,2 A/4a/4A/4a/4A/4a/4A/4a/4 c/4c'/4c/4c'/4c/4c'/4c/4c'/4 A/4a/4A/4a/4A/4a/4A/4a/4 | %96
 G,2 G/4g/4G/4g/4G/4g/4G/4g/4 c/4c'/4c/4c'/4c/4c'/4c/4c'/4 =B/4=b/4B/4b/4B/4b/4B/4b/4 | %97
 c4 z2!p! g2 | f3 e3 f2 | c3 z z4 | f4 g4 | e4 z2 g2 | f3 e3 f2 | c2 z2 c2 e2 | f2 e4 z2 | %105
"^Chorus" z2!<(! [cc']2 [cc']2 [ee']2!<)! | [dd']2 [cc']2 [cc']4 | %107
!<(! [ee']2 [cc']2 [ee']2 [gg']2!<)! | [ff']2 [ee']3 [ee'] [ff']2 | z2 [Gg]2 [cc']2 [ee']2 | %110
!<(! [dd']2 [ee']2 [ee']4!<)! | [ee']2 [cc']2 [ee']2 [gg']2 |!<(! [ff']2 [ee']2 [ff']3 [cc']-!<)! | %113
 [cc'] z [ee']2 [dd']3/2[ee']3/2[dd'] | [cc'][Bb] [cc']2 [dd']3/2[ee']3/2[dd'] | %115
 [cc'][Bb] [cc']2 [cc']2 [gg']2 | [ff']3 [dd']3 [ee']2 | [cc'] z [ee']2 [dd']3/2[ee']3/2[dd'] | %118
 [cc'][Bb] [cc']2 [dd']3/2[ee']3/2[dd'] | [cc'][Bb] [cc']2 [cc']2 [gg']2 | [ff']3 [dd']3 [ee']2 || %121
[K:E] [cc'] z [ee']2 [dd']3/2[ee']3/2[dd'] | [cc'][Bb] [cc']2 [dd']3/2[ee']3/2[dd'] | %123
 [cc'][Bb] [cc']2 [cc']2 [gg']2 | [ff']3 [dd']3 [ee']2 || %125
[K:F] [dd'] z [ff']2 [ee']3/2[ff']3/2[ee'] | [dd'][cc'] [dd']2 [ee']3/2[ff']3/2[ee'] | %127
 [dd'][cc'] [dd']2 [dd']2 [aa']2 | [gg']3 [ee']3 [ff']2 | [dd'] z [ff']2 [ee']3/2[ff']3/2[ee'] | %130
 [dd'][cc'] [dd']2 [ee']3/2[ff']3/2[ee'] | [dd'][cc'] [dd']2 [dd']2 [aa']2 | [gg']3 [ee']3 [ff']2 | %133
 [dd'] z [ff']2 [ee']3/2[ff']3/2[ee'] | [dd'][cc'] [dd']2 [ee']3/2[ff']3/2[ee'] | %135
 [dd'][cc'] [dd']2 [dd']2 [aa']2 | [gg']3 [ee']3 [ff']2 |!>(! [Ddd']2 z2 z4!>)! | z8 | z8 | z8 | %141
 z8 | z8 | z8 | z8 | z8 | z8 | z8 | z8 | z8 | z8 | z8 | z8 |] %153
V:2
!ped! C,2 G,2 C3/2C,3/2C!ped-up! |!ped! E,2 B,2 E3/2E,3/2E!ped-up! | %2
!ped! A,,2 E,2 A,3/2A,,3/2A,!ped-up! |!ped! G,,2 D,2 G,3/2G,,3/2G,!ped-up! | %4
!ped! C,2 G,2 C3/2C,3/2C!ped-up! |!ped! E,2 B,2 E3/2E,3/2E!ped-up! | %6
!ped! A,,2 E,2 A,3/2A,,3/2A,!ped-up! |!ped! G,,2 D,2 G,3/2G,,3/2G,!ped-up! | %8
!ped! C,2 G,2 C3/2C,3/2C!ped-up! |!ped! E,2 B,2 E3/2E,3/2E!ped-up! | %10
!ped! A,,2 E,2 A,3/2A,,3/2A,!ped-up! |!ped! G,,2 D,2 G,3/2G,,3/2G,!ped-up! | %12
!ped! C,2 G,2 C3/2C,3/2C!ped-up! |!ped! E,2 B,2 E3/2E,3/2E!ped-up! | %14
!ped! A,,2 E,2 A,3/2A,,3/2A,!ped-up! |!ped! G,,2 D,2 G,3/2G,,3/2G,!ped-up! | %16
!ped! C,2 G,2 C3/2C,3/2C!ped-up! |!ped! E,2 B,2 E3/2E,3/2E!ped-up! | %18
!ped! A,,2 E,2 A,3/2A,,3/2A,!ped-up! |!ped! G,,2 D,2 G,3/2G,,3/2G,!ped-up! | %20
!ped! C,2 G,2 C3/2C,3/2C!ped-up! |!ped! E,2 B,2 E3/2E,3/2E!ped-up! | %22
!ped! A,,2 E,2 A,3/2A,,3/2A,!ped-up! |!ped! G,,2 D,2 G,3/2G,,3/2G,!ped-up! | %24
!ped! C,G,,C,D, E,D,C,D,!ped-up! |!ped! E,B,,E,F, G,E,F,D,!ped-up! | %26
!ped! z A,,C,E, G,2 E,2!ped-up! |!ped! z G,,=B,,C, D,2 B,,2!ped-up! | %28
!ped! C,G,,C,D, E,D,C,D,!ped-up! |!ped! E,B,,E,F, G,E,F,D,!ped-up! | %30
!ped! z A,,C,E, G,2 A,2!ped-up! | z G,E,F, C,2 =B,,2 |!ped! C,G,,C,D, E,D,C,D,!ped-up! | %33
!ped! E,B,,E,F, G,E,F,D,!ped-up! |!ped! z A,,C,E, G,2 E,2!ped-up! | %35
!ped! z G,,=B,,C, D,2 B,,2!ped-up! |!ped! C,G,,C,D, E,D,C,D,!ped-up! | %37
!ped! E,B,,E,F, G,E,F,D,!ped-up! |!ped! z A,,C,E, G,2 A,2!ped-up! | z G,E,F, C,2 =B,,2 | %40
!ped! C,G,,C,D, E,D,C,D,!ped-up! |!ped! E,B,,E,F, G,E,F,D,!ped-up! | %42
!ped! z A,,C,E, G,2 E,2!ped-up! |!ped! z G,,=B,,C, D,2 B,,2!ped-up! | %44
!ped! C,G,,C,D, E,D,C,D,!ped-up! |!ped! E,B,,E,F, G,E,F,D,!ped-up! | %46
!ped! z A,,C,E, G,2 A,2!ped-up! |!ped! z G,E,F, C,2 =B,,2!ped-up! |!ped! C,8!ped-up! | %49
!ped! z8!ped-up! |!ped! z8!ped-up! |!ped! z8!ped-up! |!ped! z8!ped-up! |!ped! z8!ped-up! | %54
!ped! z8!ped-up! |!ped! z8!ped-up! |!ped! z8!ped-up! |!ped! C,2 G,2 C3/2C,3/2C!ped-up! | %58
!ped! E,2 B,2 E3/2E,3/2E!ped-up! |!ped! A,,2 E,2 A,3/2A,,3/2A,!ped-up! | %60
!ped! G,,2 D,2 G,3/2G,,3/2G,!ped-up! |!ped! C,2 G,2 C3/2C,3/2C!ped-up! | %62
!ped! E,2 B,2 E3/2E,3/2E!ped-up! |!ped! A,,2 E,2 A,3/2A,,3/2A,!ped-up! | %64
!ped! G,,2 D,2 G,3/2G,,3/2G,!ped-up! |!ped! C,G,,C,D, E,D,C,D,!ped-up! | %66
!ped! E,B,,E,F, G,E,F,D,!ped-up! |!ped! z A,,C,E, G,2 E,2!ped-up! | %68
!ped! z G,,=B,,C, D,2 B,,2!ped-up! |!ped! C,G,,C,D, E,D,C,D,!ped-up! | %70
!ped! E,B,,E,F, G,E,F,D,!ped-up! |!ped! z A,,C,E, G,2 A,2!ped-up! | %72
!ped! z G,E,F, C,2 =B,,2!ped-up! |!ped! C,G,,C,D, E,D,C,D,!ped-up! | %74
!ped! E,B,,E,F, G,E,F,D,!ped-up! |!ped! z A,,C,E, G,2 E,2!ped-up! | %76
!ped! z G,,=B,,C, D,2 B,,2!ped-up! |!ped! C,G,,C,D, E,D,C,D,!ped-up! | %78
!ped! E,B,,E,F, G,E,F,D,!ped-up! |!ped! z A,,C,E, G,2 A,2!ped-up! | %80
!ped! z G,E,F, C,2 =B,,2!ped-up! |!ped! C,G,,C,D, E,D,C,D,!ped-up! | %82
!ped! E,B,,E,F, G,E,F,D,!ped-up! |!ped! z A,,C,E, G,2 E,2!ped-up! | %84
!ped! z G,,=B,,C, D,2 B,,2!ped-up! |!ped! C,G,,C,D, E,D,C,D,!ped-up! | %86
!ped! E,B,,E,F, G,E,F,D,!ped-up! |!ped! z A,,C,E, G,2 A,2!ped-up! | %88
!ped! z G,E,F, C,2 =B,,2!ped-up! |!ped! C,G,,C,D, E,D,C,D,!ped-up! | %90
!ped! E,B,,E,F, G,E,F,D,!ped-up! |!ped! z A,,C,E, G,2 E,2!ped-up! | %92
!ped! z G,,=B,,C, D,2 B,,2!ped-up! |!ped! C,G,,C,D, E,D,C,D,!ped-up! | %94
!ped! E,B,,E,F, G,E,F,D,!ped-up! |!ped! z A,,C,E, G,2 A,2!ped-up! | %96
!ped! z G,E,F, C,2 =B,,2!ped-up! |!ped! C,G,,C,D, E,D,C,D,!ped-up! | %98
!ped! E,B,,E,F, G,E,F,D,!ped-up! |!ped! E,A,,C,E, G,2 E,2!ped-up! | %100
!ped! D,G,,=B,,C, D,2 B,,2!ped-up! |!ped! C,G,,C,D, E,D,C,D,!ped-up! | %102
!ped! E,B,,E,F, G,E,F,D,!ped-up! |!ped! z A,,C,E, G,2 A,2!ped-up! | %104
!ped! z G,E,F, C,2 =B,,2!ped-up! |!ped! C,G,,C,D, E,D,C,D,!ped-up! | %106
!ped! E,B,,E,F, G,E,F,D,!ped-up! |!ped! z A,,C,E, G,2 E,2!ped-up! | %108
!ped! z G,,=B,,C, D,2 B,,2!ped-up! |!ped! C,G,,C,D, E,D,C,D,!ped-up! | %110
!ped! E,B,,E,F, G,E,F,D,!ped-up! |!ped! z A,,C,E, G,2 A,2!ped-up! | %112
!ped! z G,E,F, C,2 =B,,2!ped-up! |!f!!ped! C,G,,C,D, E,D,C,D,!ped-up! | %114
!ped! E,B,,E,F, G,E,F,D,!ped-up! |!ped! z A,,C,E, G,2 E,2!ped-up! | %116
!ped! z G,,=B,,C, D,2 B,,2!ped-up! |!ped! C,G,,C,D, E,D,C,D,!ped-up! | %118
!ped! E,B,,E,F, G,E,F,D,!ped-up! |!ped! z A,,C,E, G,2 A,2!ped-up! | %120
!ped! z G,E,F, C,2 =B,,2!ped-up! ||[K:E]!ped! C,G,,C,D, E,D,C,D,!ped-up! | %122
!ped! E,B,,E,F, G,E,F,D,!ped-up! |!ped! z A,,C,E, G,2 E,2!ped-up! | %124
!ped! z G,,^B,,C, D,2 C,2!ped-up! ||[K:F]!ped! D,A,,D,E, F,E,D,E,!ped-up! | %126
!ped! F,C,F,G, A,F,G,E,!ped-up! |!ped! z B,,D,F, A,2 F,2!ped-up! | %128
!ped! z A,,^C,D, E,2 D,2!ped-up! |!ped! D,A,,D,E, F,E,D,E,!ped-up! | %130
!ped! F,C,F,G, A,F,G,E,!ped-up! |!ped! z B,,D,F, A,2 F,2!ped-up! | %132
!ped! z A,,^C,D, E,2 D,2!ped-up! |!ped! D,A,,D,E, F,E,D,E,!ped-up! | %134
!ped! F,C,F,G, A,F,G,E,!ped-up! |!ped! z B,,D,F, A,2 F,2!ped-up! | %136
!ped! z A,,^C,D, E,2 D,2!ped-up! |!ped!!>(!"_dim." D,A,,D,E, F,E,D,E,!ped-up!!>)! | %138
!ped! F,C,F,G, A,F,G,E,!ped-up! |!ped! z B,,D,F, A,2 F,2!ped-up! | %140
!ped! z A,,^C,D, E,E,F,E,!ped-up! |!mf!!ped!!>(! D,A,,D,E, F,E,D,E,!ped-up!!>)! | %142
!ped!!>(! F,C,F,G, A,F,G,E,!ped-up!!>)! |!ped!!>(! z B,,D,F, A,2 F,2!ped-up!!>)! | %144
!ped!!>(! z A,,^C,D, E,2 C,2!ped-up!!>)! |!mp!!ped! D,2 A,2 D3/2D,3/2D!ped-up! | %146
!ped! F,2 C2 F3/2F,3/2F!ped-up! |!ped! B,,2 F,2 B,3/2B,,3/2B,!ped-up! | %148
!ped! A,,2 E,2 A,3/2A,,3/2A,!ped-up! |!p!!ped!!>(! D,2 A,2 D3/2D,3/2D!ped-up!!>)! | %150
!ped!!>(! F,2 C2 F3/2F,3/2F!ped-up!!>)! |!ped!!>(! B,,2 F,2 B,3/2B,,3/2B,!ped-up!!>)! | %152
!ped!!>(! A,,2 E,2 A,3/2A,,3/2A,!ped-up!!>)! |] %153
V:3
 x8 | x8 | x8 | x8 | C,,8 | E,,8 | A,,,8 | G,,,8 | C,,8 | E,,8 | A,,,8 | G,,,8 | C,,8 | E,,8 | %14
 A,,,8 | G,,,8 | C,,8 | E,,8 | A,,,8 | G,,,8 | C,,8 | E,,8 | A,,,8 | G,,,8 | C,,8 | E,,8 | A,,,8 | %27
 G,,,8 | C,,8 | E,,8 | A,,,8 | G,,,8 | C,,8 | E,,8 | A,,,8 | G,,,8 | C,,8 | E,,8 | A,,,8 | G,,,8 | %40
 C,,8 | E,,8 | A,,,8 | G,,,8 | C,,8 | E,,8 | A,,,8 | G,,,8 | C,,8 | [C,C]8 | [E,E]8 | [A,,A,]8 | %52
 [G,,G,]8 | [C,,C,C]8 | [E,,E,E]8 | [A,,,A,,A,]8 | [G,,,G,,G,]8 | C,,8 | E,,8 | A,,,8 | G,,,8 | %61
 C,,8 | E,,8 | A,,,8 | G,,,8 | C,,8 | E,,8 | A,,,8 | G,,,8 | C,,8 | E,,8 | A,,,8 | G,,,8 | C,,8 | %74
 E,,8 | A,,,8 | G,,,8 | C,,8 | E,,8 | A,,,8 | G,,,8 | C,,8 | E,,8 | A,,,8 | G,,,8 | C,,8 | E,,8 | %87
 A,,,8 | G,,,8 | x8 | x8 | x8 | x8 | x8 | x8 | x8 | x8 | x8 | x8 | x8 | x8 | C,,8 | E,,8 | A,,,8 | %104
 G,,,8 | C,,8 | E,,8 | A,,,8 | G,,,8 | C,,8 | E,,8 | A,,,8 | G,,,8 | C,,8 | E,,8 | A,,,8 | G,,,8 | %117
 C,,8 | E,,8 | A,,,8 | G,,,8 ||[K:E] C,,8 | E,,8 | A,,,8 | G,,,8 ||[K:F] D,,8 | F,,8 | B,,,8 | %128
 A,,,8 | D,,8 | F,,8 | B,,,8 | A,,,8 | D,,8 | F,,8 | B,,,8 | A,,,8 | D,,8 | F,,8 | B,,,8 | A,,,8 | %141
 D,,8 | F,,8 | B,,,8 | A,,,8 | D,,8 | F,,8 | B,,,8 | A,,,8 | x8 | x8 | x8 | x8 |] %153
V:4
 x8 | x8 | x8 | x8 | x8 | x8 | x8 | x8 | x8 | x8 | x8 | x8 | x8 | x8 | x8 | x8 | x8 | x8 | x8 | %19
 x8 | x8 | x8 | x8 | x8 | x8 | x8 | x8 | x8 | x8 | x8 | x8 | x8 | x8 | x8 | x8 | x8 | x8 | x8 | %38
 x8 | x8 | x8 | x8 | x8 | x8 | x8 | x8 | x8 | x8 | x8 | x8 | x8 | x8 | x8 | x8 | x8 | x8 | x8 | %57
 x8 | x8 | x8 | x8 | x8 | x8 | x8 | x8 | x8 | x8 | x8 | x8 | x8 | x8 | x8 | x8 | x8 | x8 | x8 | %76
 x8 | x8 | x8 | x8 | x8 | x8 | x8 | x8 | x8 | x8 | x8 | x8 | x8 | [cc']8 | [ee']8 | [Aa]8 | [Gg]8 | %93
 [cc']8 | [ee']8 | [Aa]8 | [Gg]8 | x8 | x8 | x8 | x8 | x8 | x8 | x8 | x8 | x8 | x8 | x8 | x8 | x8 | %110
 x8 | x8 | x8 | x8 | x8 | x8 | x8 | x8 | x8 | x8 | x8 ||[K:E] x8 | x8 | x8 | x8 ||[K:F] x8 | x8 | %127
 x8 | x8 | x8 | x8 | x8 | x8 | x8 | x8 | x8 | x8 | x8 | x8 | x8 | x8 | x8 | x8 | x8 | x8 | x8 | %146
 x8 | x8 | x8 | x8 | x8 | x8 | x8 |] %153

